svg/train_car_gondola.svg

<svg xmlns="http://www.w3.org/2000/svg" id="mdi-train-car-gondola" viewBox="0 0 24 24"><path d="M1 10V17H2C2 18.11 2.9 19 4 19S6 18.11 6 17H18C18 18.11 18.9 19 20 19S22 18.11 22 17H23V10H1M21 15H19V13H17V15H15V13H13V15H11V13H9V15H7V13H5V15H3V12H21V15Z" /></svg>

<svg xmlns="http://www.w3.org/2000/svg" viewBox="0 0 24 24"><path d="M1 10v7h1a2 2 0 1 0 4 0h12a2 2 0 1 0 4 0h1v-7zm20 5h-2v-2h-2v2h-2v-2h-2v2h-2v-2H9v2H7v-2H5v2H3v-3h18z"/></svg>
